icons/document-arrow-down-outline.svg

<svg xmlns="http://www.w3.org/2000/svg" width="24" height="24" viewBox="0 0 24 24">
  <path d="M12,1 L12,8 C12,8.55228475 12.4477153,9 13,9 L20,9 L20,21 C20,22.1045695 19.1045695,23 18,23 L6,23 C4.8954305,23 4,22.1045695 4,21 L4,3 C4,1.8954305 4.8954305,1 6,1 L12,1 Z M10,3 L6,3 L6,21 L18,21 L18,11 L13,11 C11.4023191,11 10.0963391,9.75108004 10.0050927,8.17627279 L10,8 L10,3 Z M12,12 C12.5522847,12 13,12.4477153 13,13 L13,13 L13,16.585 L14.2928932,15.2928932 L14.3871006,15.2097046 C14.7793918,14.9046797 15.3466228,14.9324093 15.7071068,15.2928932 C16.0976311,15.6834175 16.0976311,16.3165825 15.7071068,16.7071068 L15.7071068,16.7071068 L12.7071068,19.7071068 L12.625449,19.7803112 C12.6225624,19.7826279 12.6196628,19.7849289 12.6128994,19.7902954 C12.6070733,19.7948255 12.6012086,19.7992821 12.5951593,19.8036865 C12.5711307,19.8215099 12.546275,19.8382813 12.5207088,19.8540045 C12.5086131,19.8613931 12.4963944,19.8685012 12.484277,19.8751242 C12.4642939,19.8862061 12.4438914,19.8966234 12.4232215,19.9063266 L12.4232215,19.9063266 L12.3710585,19.928896 C12.3515792,19.9366843 12.3317977,19.9438775 12.3121425,19.9502619 C12.2968513,19.9552713 12.2814633,19.9599023 12.2658396,19.964279 C12.2444365,19.9701664 12.2227461,19.9753602 12.2007258,19.9797599 C12.1833753,19.9832978 12.165949,19.9863719 12.1489612,19.9889807 L12.1489612,19.9889807 L12.08,19.996 L12.026,19.999 L12.019,19.999 L12,20 C11.9935938,20 11.9872016,19.9999398 11.980824,19.9998198 L11.980824,19.9998198 L11.9409686,19.9982669 C11.9308872,19.9976744 11.9208131,19.99693 11.909968,19.996002 L11.909968,19.996002 L11.8515331,19.9889822 C11.834051,19.9863719 11.8166247,19.9832978 11.7992059,19.9798348 C11.7772539,19.9753602 11.7555635,19.9701664 11.734007,19.9641549 C11.7185367,19.9599023 11.7031487,19.9552713 11.6882636,19.9504533 C11.6682023,19.9438775 11.6484208,19.9366843 11.628664,19.9287745 L11.628664,19.9287745 L11.5769009,19.9063462 C11.5561086,19.8966234 11.5357061,19.8862061 11.5159379,19.8753288 L11.5159379,19.8753288 L11.4793398,19.8539326 C11.453725,19.8382813 11.4288693,19.8215099 11.4046934,19.8036654 L11.4046934,19.8036654 L11.38,19.784 L11.3832499,19.787214 L11.378,19.783 L11.374551,19.7803112 L11.359,19.767 L11.347434,19.757792 L11.347434,19.757792 L11.2928932,19.7071068 L8.29289322,16.7071068 L8.20970461,16.6128994 C7.90467972,16.2206082 7.93240926,15.6533772 8.29289322,15.2928932 C8.68341751,14.9023689 9.31658249,14.9023689 9.70710678,15.2928932 L9.70710678,15.2928932 L11,16.585 L11,13 L11.0067277,12.8833789 C11.0644928,12.3860402 11.4871642,12 12,12 Z M14,1 L20,7 L15,7 C14.4871642,7 14.0644928,6.61395981 14.0067277,6.11662113 L14,6 L14,1 Z"/>
</svg>

<svg xmlns="http://www.w3.org/2000/svg" viewBox="0 0 24 24">
  <path d="M12 1v7a1 1 0 0 0 1 1h7v12a2 2 0 0 1-2 2H6a2 2 0 0 1-2-2V3c0-1.1.9-2 2-2h6zm-2 2H6v18h12V11h-5a3 3 0 0 1-3-2.82V3zm2 9a1 1 0 0 1 1 1v3.59l1.3-1.3.09-.08a1 1 0 0 1 1.32 1.5l-3 3-.08.07a3 3 0 0 1-.15.1l-.06.03-.05.02a.95.95 0 0 1-.22.06h-.13L12 20h-.09l-.06-.01a1.1 1.1 0 0 1-.22-.06l-.05-.02a1.04 1.04 0 0 1-.06-.03l-.04-.03a1.03 1.03 0 0 1-.08-.05l-.02-.02-.02-.01-.01-.01-.06-.05-3-3-.08-.1a1 1 0 0 1 1.5-1.32L11 16.6v-3.71a1 1 0 0 1 1-.88zm2-11 6 6h-5a1 1 0 0 1-1-.88V1z"/>
</svg>
